icons/smoke.svg

<svg width="24" height="24" viewBox="0 0 24 24" fill="none" xmlns="http://www.w3.org/2000/svg">
<path fill-rule="evenodd" clip-rule="evenodd" d="M17 2C17.5523 2 18 2.44772 18 3V4C18 4.26522 18.1054 4.51957 18.2929 4.70711C18.4804 4.89464 18.7348 5 19 5C19.7957 5 20.5587 5.31607 21.1213 5.87868C21.6839 6.44129 22 7.20435 22 8V9C22 9.55228 21.5523 10 21 10C20.4477 10 20 9.55228 20 9V8C20 7.73478 19.8946 7.48043 19.7071 7.29289C19.5196 7.10536 19.2652 7 19 7C18.2044 7 17.4413 6.68393 16.8787 6.12132C16.3161 5.55871 16 4.79565 16 4V3C16 2.44772 16.4477 2 17 2ZM1 13C1 12.4477 1.44772 12 2 12H22C22.5523 12 23 12.4477 23 13V17C23 17.5523 22.5523 18 22 18H2C1.44772 18 1 17.5523 1 17V13ZM3 14V16H6V14H3ZM8 14V16H21V14H8Z" fill="black"/>
</svg>

<svg
  width="24"
  height="24"
  viewBox="0 0 24 24"
  xmlns="http://www.w3.org/2000/svg"
>
  <path
    fill-rule="evenodd"
    clip-rule="evenodd"
    d="M17 2a1 1 0 0 1 1 1v1a1 1 0 0 0 1 1 3 3 0 0 1 3 3v1a1 1 0 1 1-2 0V8a1 1 0 0 0-1-1 3 3 0 0 1-3-3V3a1 1 0 0 1 1-1zM1 13a1 1 0 0 1 1-1h20a1 1 0 0 1 1 1v4a1 1 0 0 1-1 1H2a1 1 0 0 1-1-1v-4zm2 1v2h3v-2H3zm5 0v2h13v-2H8z"
  />
</svg>
